X:2
T:The Harvest Moon Reel
M:4/4
R:Reel
L:1/8
Q:180
N:From Feldman and O'Doherty's "The Northern Fiddler"
N:As played by Simon Doherty
K:C
DGGE ^FGAF|DGGE =FDCF|DGGE ^FGA^c|d2=cA G2GF|
DGGE ^FGAF|G2GE =FDCF|DGGE ^FGA^c|G2GE AGG{A}e||
|:f2de fcAG|f2de f2ag|f2de fcAe|fgfd c2de|
f2de fcAe|f2de f3g|a-bgb fgef|d2{d}cA AG G:||
